assets/luts/AmberLight.cube
#Created by: Adobe Photoshop Export Color Lookup Plugin
#Copyright: (C) Copyright 2018 https://www.presetpro.com and Tim Martin
TITLE "Presetpro - Amber Light"
#LUT size
LUT_3D_SIZE 32
#data domain
DOMAIN_MIN 0.0 0.0 0.0
DOMAIN_MAX 1.0 1.0 1.0
#LUT data points
0.015900 0.008362 0.008301
0.022675 0.009918 0.009338
0.029419 0.011475 0.010406
0.036621 0.013245 0.011963
0.050323 0.015320 0.013428
0.066132 0.017487 0.013947
0.081482 0.019257 0.014496
0.131165 0.020142 0.015198
0.189575 0.019806 0.015503
0.241455 0.018982 0.015625
0.292053 0.016907 0.014435
0.320984 0.016174 0.012085
0.356628 0.015198 0.009979
0.393829 0.015076 0.009125
0.424133 0.012482 0.008179
0.451721 0.012238 0.008453
0.475311 0.010773 0.009277
0.492798 0.010315 0.010315
0.516998 0.011169 0.011169
0.544464 0.011932 0.011932
0.569214 0.013153 0.012787
0.592773 0.014404 0.013672
0.613525 0.014038 0.014038
0.632965 0.014526 0.014526
0.651550 0.015137 0.015137
0.669830 0.015747 0.015747
0.687744 0.016388 0.016388
0.705261 0.017029 0.017029
0.723358 0.017548 0.017548
0.741425 0.018036 0.018036
0.762054 0.018066 0.018066
0.782990 0.018036 0.018036
0.022552 0.014526 0.010132
0.026947 0.016663 0.012970
0.034454 0.018341 0.013885
0.043121 0.020142 0.014404
0.055634 0.022003 0.016052
0.072266 0.023193 0.017609
0.088959 0.025269 0.018036
0.123322 0.026855 0.018066
0.168427 0.027618 0.018463
0.209991 0.028351 0.018555
0.256134 0.027832 0.017487
0.284332 0.030304 0.015656
0.326813 0.030151 0.013336
0.369568 0.028717 0.011475
0.401184 0.027130 0.010559
0.430328 0.026611 0.010834
0.465729 0.023499 0.012848
0.499664 0.020691 0.015472
0.528412 0.023285 0.016998
0.559021 0.022095 0.016846
0.585205 0.021423 0.017334
0.607361 0.020691 0.017761
0.627930 0.019257 0.018036
0.647308 0.019745 0.018524
0.665924 0.020081 0.019135
0.684174 0.020691 0.019775
0.702728 0.021210 0.020294
0.720459 0.021820 0.020874
0.739197 0.022217 0.021301
0.757477 0.022705 0.021759
0.777618 0.022858 0.021912
0.798615 0.022858 0.021912
0.029114 0.020721 0.011993
0.034393 0.022919 0.014679
0.040344 0.025818 0.017487
0.049530 0.028625 0.018127
0.062561 0.031372 0.018555
0.081177 0.032745 0.020416
0.109009 0.035248 0.021637
0.142975 0.037415 0.021515
0.178955 0.039734 0.021088
0.218231 0.041351 0.020996
0.258484 0.042664 0.020416
0.292725 0.046509 0.017609
0.331482 0.048462 0.015442
0.372742 0.047699 0.013550
0.406250 0.047150 0.012787
0.434418 0.047516 0.014160
0.468414 0.045166 0.017426
0.508881 0.037720 0.020294
0.544189 0.035095 0.022308
0.573578 0.031433 0.021149
0.600922 0.028839 0.021667
0.621826 0.026276 0.021729
0.642212 0.024536 0.022034
0.661804 0.027191 0.022522
0.680786 0.029663 0.023132
0.699249 0.032959 0.023743
0.717865 0.034912 0.024902
0.736328 0.037292 0.026215
0.755249 0.037842 0.026978
0.774200 0.039490 0.027893
0.794098 0.038727 0.027985
0.814301 0.038208 0.027985
0.036194 0.029266 0.015015
0.043610 0.032654 0.016663
0.049988 0.036133 0.019501
0.061310 0.038483 0.021729
0.074890 0.041290 0.022034
0.100311 0.044312 0.022186
0.128845 0.047150 0.023254
0.159088 0.050964 0.022369
0.193176 0.053894 0.021912
0.228424 0.057007 0.021851
0.267944 0.059326 0.021667
0.304688 0.062683 0.019409
0.341797 0.067474 0.017273
0.379913 0.068451 0.016876
0.415009 0.070068 0.016663
0.442780 0.072327 0.018738
0.474518 0.072388 0.020660
0.511322 0.067932 0.022247
0.549133 0.062164 0.024323
0.583038 0.057709 0.023895
0.618103 0.050842 0.024597
0.643219 0.046600 0.027008
0.659302 0.051697 0.029388
0.677277 0.056244 0.031342
0.697327 0.055389 0.032501
0.716370 0.057587 0.034119
0.733551 0.059021 0.035583
0.751587 0.061035 0.036835
0.771912 0.058868 0.036438
0.790924 0.058563 0.036530
0.809540 0.058472 0.037231
0.829376 0.056396 0.036713
0.044647 0.040863 0.017731
0.052429 0.044373 0.019409
0.062592 0.047974 0.020844
0.074188 0.049957 0.023041
0.091614 0.053406 0.024994
0.120789 0.057922 0.025116
0.150177 0.062927 0.024933
0.180328 0.068329 0.023407
0.212189 0.073792 0.022247
0.246826 0.078247 0.022461
0.282898 0.083038 0.022247
0.320709 0.087646 0.020325
0.360168 0.091614 0.019073
0.398529 0.094055 0.019104
0.429108 0.096619 0.019836
0.455597 0.100433 0.022644
0.486023 0.101440 0.024017
0.520172 0.100983 0.024994
0.556091 0.097656 0.025604
0.592377 0.093262 0.026184
0.629578 0.086090 0.031036
0.659668 0.076782 0.035309
0.678162 0.078125 0.038574
0.693268 0.084137 0.040588
0.712280 0.084106 0.042389
0.732117 0.082489 0.043304
0.749695 0.083679 0.044464
0.766510 0.085968 0.045471
0.786041 0.084473 0.044952
0.806427 0.081604 0.043762
0.824738 0.082214 0.043549
0.843353 0.081726 0.043396
0.053864 0.058105 0.016663
0.065063 0.061829 0.018158
0.076050 0.066467 0.019714
0.091187 0.070953 0.021820
0.114044 0.075714 0.023499
0.139160 0.080933 0.023956
0.168915 0.086273 0.023346
0.195862 0.092255 0.022949
0.228943 0.098053 0.021667
0.262177 0.102448 0.022766
0.299133 0.107269 0.022858
0.334747 0.112183 0.023773
0.375031 0.116180 0.022491
0.415100 0.119141 0.022736
0.444153 0.121979 0.023743
0.470520 0.125641 0.026428
0.499725 0.128448 0.026215
0.532257 0.128998 0.026886
0.569031 0.126984 0.026123
0.607147 0.123474 0.029327
0.640137 0.120728 0.033569
0.669281 0.116577 0.036346
0.689270 0.115601 0.038757
0.705383 0.120483 0.039398
0.724609 0.119385 0.043274
0.744659 0.118225 0.044678
0.762207 0.120483 0.044373
0.778839 0.124115 0.044556
0.795624 0.127533 0.043304
0.814941 0.127777 0.041870
0.831482 0.132690 0.039429
0.849274 0.134979 0.038940
0.065552 0.078217 0.015198
0.076691 0.082153 0.017090
0.093750 0.086761 0.018524
0.114532 0.092133 0.020355
0.135681 0.097656 0.022247
0.161591 0.103607 0.022339
0.187469 0.109375 0.022400
0.215790 0.116089 0.021454
0.244354 0.122284 0.020813
0.278381 0.126923 0.021667
0.314941 0.131592 0.023071
0.351410 0.136475 0.024536
0.389557 0.141083 0.025757
0.427155 0.143768 0.026031
0.458557 0.146973 0.027008
0.485138 0.150848 0.028381
0.513702 0.154175 0.028534
0.545197 0.156067 0.027924
0.580109 0.156342 0.028290
0.619629 0.153168 0.032593
0.655457 0.151520 0.036652
0.678864 0.151459 0.038544
0.699280 0.153015 0.040283
0.716949 0.156128 0.040222
0.736389 0.156006 0.042816
0.756683 0.154266 0.045715
0.773895 0.157623 0.044922
0.790649 0.161102 0.043671
0.807587 0.164795 0.042389
0.824371 0.168640 0.040436
0.841217 0.173096 0.037872
0.857452 0.178436 0.034943
0.079865 0.096344 0.014160
0.091400 0.102173 0.017029
0.112488 0.108093 0.018555
0.136902 0.113495 0.020111
0.158447 0.119141 0.021545
0.180664 0.124603 0.022827
0.207306 0.130554 0.022736
0.235443 0.136749 0.023102
0.263855 0.143616 0.023010
0.291962 0.150604 0.024353
0.328186 0.155670 0.025635
0.368866 0.160126 0.026947
0.406158 0.165710 0.028442
0.437958 0.170105 0.028687
0.470551 0.173798 0.029266
0.498749 0.178375 0.028015
0.526611 0.181854 0.028564
0.556396 0.185059 0.031464
0.590607 0.186127 0.031891
0.628052 0.185730 0.034424
0.663177 0.185211 0.037384
0.689880 0.186096 0.038269
0.710632 0.186951 0.040131
0.728821 0.189117 0.040771
0.747589 0.190308 0.042267
0.767273 0.189728 0.044617
0.783142 0.195801 0.041412
0.799347 0.201294 0.039459
0.816864 0.203644 0.039551
0.833954 0.207428 0.038666
0.853180 0.208038 0.037811
0.870270 0.212494 0.036133
0.101562 0.116638 0.013062
0.117950 0.122955 0.015686
0.133179 0.129456 0.018463
0.156128 0.135010 0.019897
0.179871 0.140442 0.020874
0.202942 0.146362 0.022034
0.227692 0.152832 0.023193
0.255951 0.159760 0.024200
0.286438 0.166595 0.025482
0.313995 0.174133 0.026855
0.343323 0.181671 0.027771
0.384003 0.186493 0.029114
0.422638 0.191010 0.029816
0.454926 0.196350 0.029816
0.484131 0.200836 0.030365
0.512665 0.205658 0.028412
0.542694 0.209106 0.028381
0.571777 0.212463 0.033386
0.602600 0.215424 0.036011
0.639130 0.216003 0.037903
0.671295 0.217834 0.038422
0.700256 0.219666 0.039337
0.722778 0.220856 0.040314
0.741608 0.222687 0.041534
0.760040 0.224854 0.041809
0.779114 0.225800 0.043213
0.795837 0.231659 0.040283
0.811310 0.240356 0.035980
0.828583 0.244141 0.034729
0.846313 0.246735 0.034790
0.865570 0.247742 0.033936
0.884857 0.248322 0.033875
0.121246 0.137115 0.013916
0.141235 0.143127 0.016052
0.157745 0.150055 0.018219
0.175842 0.156677 0.020172
0.198883 0.162750 0.021362
0.223694 0.169556 0.021515
0.248779 0.176788 0.023560
0.276581 0.184174 0.024811
0.307312 0.191162 0.025879
0.339661 0.197174 0.028870
0.369690 0.204956 0.029388
0.400909 0.213257 0.030273
0.438873 0.217987 0.030029
0.474762 0.223083 0.029724
0.502838 0.228302 0.029205
0.531067 0.233307 0.029541
0.562500 0.237518 0.031677
0.595154 0.239899 0.035095
0.623657 0.245026 0.036713
0.654175 0.248993 0.039490
0.688049 0.252289 0.037079
0.716522 0.255554 0.037598
0.737457 0.256104 0.037598
0.757233 0.256653 0.038818
0.774658 0.261017 0.037628
0.792603 0.264160 0.037811
0.810669 0.267273 0.036865
0.827148 0.273743 0.035248
0.844269 0.278351 0.033752
0.861542 0.281342 0.033691
0.880920 0.282684 0.032623
0.900116 0.283569 0.032471
0.141571 0.158569 0.014801
0.161407 0.165314 0.016327
0.181335 0.171875 0.017975
0.199371 0.178772 0.019867
0.219452 0.185577 0.021240
0.244751 0.192932 0.022552
0.270477 0.201080 0.024353
0.299133 0.209167 0.025421
0.328094 0.217224 0.026276
0.361816 0.224274 0.028412
0.397125 0.230682 0.031128
0.427826 0.239532 0.030273
0.459869 0.247284 0.028992
0.493561 0.252075 0.028381
0.521667 0.257782 0.028748
0.549988 0.263062 0.030762
0.579681 0.268219 0.034576
0.613403 0.270721 0.037445
0.645508 0.274658 0.038940
0.673584 0.280548 0.040009
0.703796 0.285095 0.037964
0.731689 0.289276 0.037415
0.751648 0.290588 0.036560
0.771912 0.290497 0.037354
0.789948 0.293335 0.036438
0.806549 0.298035 0.036011
0.824005 0.301422 0.035126
0.841217 0.304749 0.035248
0.858093 0.308868 0.034058
0.875061 0.312653 0.033844
0.894562 0.313843 0.032959
0.913849 0.315247 0.032318
0.162720 0.180054 0.014771
0.181976 0.187408 0.016052
0.202057 0.194641 0.017578
0.220520 0.202728 0.018829
0.240601 0.210388 0.020782
0.267212 0.218109 0.023132
0.294678 0.226807 0.024780
0.321472 0.235138 0.027161
0.351837 0.243561 0.027679
0.383698 0.252228 0.028107
0.418671 0.259125 0.030304
0.455505 0.265717 0.029449
0.486755 0.273560 0.028473
0.514679 0.278961 0.029999
0.542053 0.284698 0.031769
0.566803 0.291565 0.034363
0.595337 0.296967 0.037659
0.624817 0.302063 0.037598
0.657837 0.305603 0.039001
0.689484 0.310394 0.035828
0.719177 0.315094 0.035858
0.743225 0.319061 0.034515
0.765564 0.321136 0.033142
0.785522 0.321930 0.033264
0.803955 0.324310 0.033417
0.821228 0.328247 0.033508
0.838470 0.331665 0.034027
0.855499 0.334930 0.034454
0.871765 0.339966 0.033936
0.888245 0.344421 0.033600
0.907990 0.345245 0.032867
0.927460 0.346375 0.032166
0.185669 0.202698 0.014282
0.206512 0.210205 0.015625
0.226532 0.218292 0.016449
0.244141 0.226776 0.017609
0.263031 0.235657 0.020325
0.290161 0.244141 0.022675
0.319031 0.252472 0.024658
0.347656 0.261047 0.026398
0.377014 0.269745 0.027222
0.408539 0.278442 0.028992
0.442108 0.286957 0.027252
0.478851 0.293579 0.026154
0.508667 0.298889 0.029022
0.536285 0.304413 0.031708
0.563141 0.310455 0.033539
0.587250 0.317657 0.037476
0.613739 0.323975 0.039429
0.642365 0.329559 0.038971
0.670776 0.335510 0.039337
0.703644 0.340118 0.034729
0.734863 0.344360 0.035187
0.757629 0.348419 0.033417
0.778717 0.352020 0.033356
0.798523 0.353180 0.033112
0.817169 0.355377 0.033539
0.834900 0.358765 0.033813
0.852631 0.362091 0.033722
0.869598 0.365326 0.034363
0.885651 0.370514 0.033875
0.901581 0.375854 0.033264
0.920654 0.377350 0.032593
0.940460 0.378082 0.031830
0.210907 0.226257 0.012573
0.234039 0.233459 0.013550
0.255127 0.241241 0.014435
0.271271 0.250702 0.015839
0.290741 0.260803 0.018951
0.314026 0.269958 0.022247
0.342163 0.278564 0.024078
0.374878 0.286804 0.024200
0.404999 0.295502 0.026886
0.436981 0.304749 0.024872
0.470642 0.313446 0.022980
0.499084 0.320709 0.024017
0.527405 0.325958 0.027740
0.556519 0.331329 0.030151
0.583588 0.337616 0.033356
0.609161 0.344666 0.035797
0.635620 0.351318 0.034851
0.664154 0.357178 0.036530
0.691895 0.363800 0.033386
0.719879 0.370575 0.031494
0.749695 0.374359 0.032227
0.775452 0.377655 0.032898
0.792908 0.382172 0.033173
0.810516 0.385895 0.033325
0.829498 0.387482 0.033936
0.847778 0.389801 0.034515
0.865936 0.393188 0.033752
0.883606 0.396637 0.033417
0.899536 0.401825 0.032959
0.915344 0.407288 0.032349
0.933746 0.409454 0.031830
0.952881 0.410767 0.031158
0.236786 0.249603 0.009491
0.258118 0.257843 0.011139
0.282013 0.265717 0.013031
0.299866 0.275330 0.015320
0.317841 0.286041 0.018341
0.341980 0.295441 0.020660
0.367859 0.304657 0.022705
0.399475 0.313171 0.025360
0.433350 0.322021 0.024658
0.465607 0.331665 0.022278
0.496185 0.340424 0.022644
0.521698 0.347351 0.024109
0.546936 0.354156 0.028168
0.576263 0.359680 0.030182
0.603302 0.365997 0.033325
0.629150 0.372986 0.032959
0.657745 0.379150 0.033844
0.686584 0.385101 0.032684
0.715393 0.391113 0.031158
0.741150 0.398346 0.031525
0.766022 0.404785 0.031982
0.790771 0.407806 0.032837
0.808746 0.410919 0.033203
0.825287 0.415833 0.033356
0.842102 0.420105 0.033722
0.860657 0.421875 0.034454
0.879547 0.424347 0.033844
0.897400 0.427887 0.032837
0.914062 0.432526 0.032043
0.929779 0.438019 0.031403
0.947296 0.440979 0.031067
0.965668 0.442932 0.030548
0.263702 0.274567 0.007690
0.283325 0.283569 0.009430
0.305450 0.291962 0.011139
0.325043 0.301056 0.014374
0.344696 0.311920 0.017059
0.370728 0.322266 0.017731
0.396851 0.332123 0.020233
0.426514 0.341187 0.022369
0.459808 0.350311 0.022095
0.491150 0.359772 0.021851
0.516937 0.367432 0.022919
0.544250 0.374237 0.025024
0.570099 0.380981 0.028107
0.597015 0.387634 0.030487
0.623932 0.394196 0.030823
0.648041 0.401825 0.031586
0.676910 0.408142 0.032013
0.709015 0.413635 0.029999
0.737946 0.419678 0.030914
0.766327 0.425964 0.031738
0.789612 0.432892 0.032104
0.805481 0.438385 0.032562
0.823822 0.440979 0.032928
0.841705 0.444214 0.033051
0.857666 0.449646 0.033295
0.874054 0.454071 0.033691
0.893311 0.455994 0.033112
0.911591 0.458221 0.032166
0.928436 0.461792 0.031250
0.944580 0.465942 0.030487
0.960876 0.469452 0.030334
0.978119 0.472046 0.029999
0.293274 0.299042 0.007294
0.312744 0.308990 0.008820
0.332489 0.318634 0.010559
0.351501 0.328613 0.013214
0.373199 0.339203 0.016174
0.398590 0.349762 0.017914
0.425568 0.360138 0.018677
0.455200 0.369629 0.019379
0.487183 0.378693 0.020813
0.514069 0.386627 0.021637
0.539520 0.394257 0.022736
0.565979 0.401031 0.024384
0.591919 0.407959 0.027130
0.618652 0.414795 0.028168
0.645172 0.422028 0.028442
0.669403 0.429749 0.030029
0.697205 0.436859 0.029633
0.729340 0.442566 0.029724
0.758789 0.448517 0.030579
0.787140 0.454651 0.031464
0.806488 0.459320 0.031921
0.821320 0.464539 0.032288
0.837830 0.468658 0.032440
0.855927 0.471069 0.032562
0.872650 0.474854 0.032837
0.887848 0.479675 0.033112
0.905579 0.482910 0.032166
0.924255 0.484772 0.031250
0.940887 0.488495 0.030426
0.957520 0.492004 0.029541
0.973877 0.495514 0.029388
0.988098 0.500275 0.030334
0.325287 0.325195 0.006989
0.344513 0.335571 0.008514
0.365051 0.345734 0.010193
0.382263 0.355865 0.012878
0.402222 0.366455 0.015778
0.427246 0.376953 0.016785
0.454193 0.387085 0.017303
0.481506 0.397034 0.018829
0.508606 0.405518 0.020325
0.538208 0.413300 0.020966
0.563599 0.420624 0.022003
0.588348 0.427734 0.023529
0.614075 0.434906 0.025879
0.639587 0.442322 0.026459
0.665710 0.449127 0.027527
0.691284 0.456024 0.028442
0.718872 0.462585 0.028809
0.749725 0.468506 0.028870
0.778595 0.474121 0.029755
0.801727 0.479645 0.031097
0.819916 0.484161 0.031525
0.836029 0.488678 0.031708
0.852203 0.492920 0.031830
0.869263 0.496429 0.031830
0.886200 0.499908 0.032166
0.902252 0.503876 0.032501
0.919403 0.507385 0.031403
0.937286 0.510162 0.030151
0.953583 0.513947 0.029388
0.969666 0.517822 0.028595
0.985870 0.521240 0.028412
0.992828 0.530304 0.033386
0.356476 0.351898 0.006226
0.376312 0.362061 0.007965
0.396240 0.371887 0.009491
0.414459 0.381409 0.011658
0.434143 0.392029 0.013916
0.460724 0.402588 0.015137
0.486725 0.412903 0.016449
0.510071 0.422028 0.017975
0.532349 0.431122 0.019440
0.559113 0.439148 0.020264
0.587372 0.445312 0.021210
0.613586 0.451721 0.022736
0.637207 0.459198 0.023834
0.662018 0.466492 0.024872
0.687500 0.473450 0.026001
0.713043 0.480408 0.027130
0.740570 0.486969 0.027771
0.771545 0.492920 0.027802
0.800964 0.498077 0.028168
0.817993 0.502838 0.029541
0.834290 0.508423 0.029968
0.850525 0.512848 0.030090
0.866638 0.517151 0.030212
0.883331 0.520935 0.030212
0.899933 0.524719 0.030273
0.915985 0.528442 0.030670
0.933136 0.531555 0.029999
0.950500 0.534576 0.028595
0.967285 0.537811 0.027618
0.983093 0.541779 0.026855
0.993256 0.549072 0.029755
0.997253 0.559937 0.039581
0.386780 0.378357 0.004913
0.406219 0.388092 0.006805
0.426544 0.397980 0.008575
0.447235 0.407745 0.010468
0.467834 0.417664 0.012482
0.495209 0.427948 0.013611
0.517792 0.437042 0.014893
0.540283 0.445862 0.016418
0.562042 0.454681 0.017883
0.581329 0.463348 0.019135
0.607330 0.470062 0.020294
0.638947 0.474823 0.021912
0.664215 0.481842 0.023041
0.686005 0.490295 0.023407
0.710876 0.497528 0.024445
0.736389 0.504578 0.025574
0.764160 0.511261 0.026215
0.793640 0.517578 0.026367
0.817383 0.521973 0.026733
0.836670 0.525299 0.027344
0.851349 0.530792 0.027740
0.865601 0.536743 0.027527
0.881592 0.541077 0.027649
0.897522 0.545258 0.027771
0.913910 0.549011 0.027771
0.929932 0.552826 0.027832
0.946838 0.555725 0.027374
0.963867 0.558563 0.026550
0.980927 0.561371 0.025482
0.993469 0.566925 0.027100
0.997375 0.577667 0.033661
1.000000 0.588867 0.057556
0.417358 0.403412 0.003143
0.437958 0.413147 0.005035
0.458923 0.423187 0.006927
0.481903 0.433289 0.008698
0.501129 0.443207 0.010620
0.520752 0.452423 0.012207
0.544617 0.461487 0.013214
0.567383 0.470093 0.014374
0.588287 0.478027 0.016022
0.608795 0.486267 0.017578
0.629303 0.494843 0.018524
0.658569 0.500610 0.019745
0.689178 0.505646 0.021332
0.712616 0.513489 0.022003
0.734955 0.521729 0.022491
0.760376 0.528748 0.023560
0.785675 0.536041 0.024384
0.810120 0.541870 0.024567
0.831024 0.546448 0.025085
0.850494 0.549835 0.025696
0.867737 0.552948 0.025879
0.881714 0.558899 0.025635
0.897644 0.563354 0.024872
0.913300 0.567505 0.024994
0.927032 0.572876 0.025421
0.942963 0.576477 0.025391
0.959473 0.579834 0.024261
0.976410 0.582581 0.023590
0.993469 0.584991 0.023499
0.997467 0.595215 0.031097
0.999054 0.606689 0.038910
1.000000 0.618134 0.072327
0.449951 0.428955 0.001068
0.470734 0.439270 0.002991
0.491760 0.449463 0.004883
0.513550 0.458557 0.006531
0.532654 0.467621 0.008301
0.548462 0.477234 0.010345
0.567902 0.486328 0.011810
0.590393 0.494446 0.012451
0.612213 0.502380 0.013733
0.635010 0.509644 0.015747
0.656891 0.517670 0.016968
0.680084 0.525848 0.017212
0.708282 0.531860 0.018402
0.737305 0.537537 0.019928
0.761597 0.545044 0.020691
0.784851 0.552826 0.021332
0.807739 0.559845 0.022064
0.826294 0.566223 0.022614
0.846619 0.570770 0.023132
0.862946 0.574158 0.023895
0.880096 0.577240 0.024048
0.897247 0.580383 0.023926
0.913147 0.584961 0.023102
0.929596 0.588898 0.022034
0.942902 0.594482 0.022552
0.955566 0.600372 0.023102
0.972076 0.604065 0.021759
0.988678 0.607574 0.020294
0.997192 0.613739 0.026184
0.998138 0.623749 0.035400
0.999054 0.635773 0.057892
1.000000 0.647583 0.085266
0.483063 0.453827 0.000000
0.505981 0.464813 0.000000
0.523438 0.474152 0.001892
0.543213 0.483185 0.003845
0.563934 0.492188 0.005524
0.579834 0.501129 0.007416
0.595520 0.510132 0.009247
0.617706 0.518066 0.010071
0.639740 0.526001 0.010925
0.661560 0.533417 0.012756
0.684723 0.540710 0.014404
0.708191 0.548553 0.014893
0.730743 0.556366 0.015717
0.757843 0.562531 0.017334
0.787415 0.568451 0.018036
0.809906 0.575562 0.018463
0.827728 0.582764 0.019196
0.845917 0.589355 0.019775
0.861694 0.593903 0.020020
0.878021 0.597351 0.020660
0.893127 0.601898 0.020966
0.910065 0.605225 0.020844
0.927338 0.607971 0.020905
0.943848 0.611969 0.019745
0.959320 0.615906 0.019501
0.971527 0.622223 0.020142
0.985992 0.627441 0.018921
0.996246 0.632965 0.020538
0.997192 0.643677 0.026886
0.998138 0.653381 0.042175
0.999054 0.665070 0.063873
1.000000 0.676544 0.090759
0.512939 0.477325 0.000000
0.533295 0.487518 0.000000
0.553833 0.497681 0.000000
0.574188 0.507050 0.000580
0.591431 0.515472 0.002563
0.608490 0.524139 0.004333
0.625763 0.532776 0.006042
0.647949 0.540588 0.007050
0.669861 0.548492 0.008118
0.690247 0.556458 0.009644
0.712250 0.563965 0.011078
0.736145 0.571289 0.011963
0.759308 0.578888 0.013031
0.781311 0.586365 0.014801
0.807495 0.592743 0.015594
0.830994 0.598145 0.015350
0.849884 0.605072 0.015869
0.862366 0.611938 0.016663
0.877289 0.616699 0.016937
0.893768 0.620331 0.016937
0.908875 0.624908 0.017151
0.923157 0.630249 0.017151
0.940277 0.633118 0.017212
0.957275 0.635681 0.017334
0.972839 0.639404 0.017029
0.988068 0.643280 0.017059
0.995300 0.649841 0.018799
0.996246 0.659576 0.026367
0.997192 0.670471 0.031860
0.998138 0.681396 0.047211
0.999054 0.693329 0.068359
1.000000 0.704529 0.091736
0.541656 0.499847 0.000000
0.560822 0.510254 0.000000
0.579651 0.520081 0.000000
0.597260 0.529724 0.000000
0.617249 0.538666 0.000000
0.639038 0.547119 0.000092
0.656250 0.555756 0.001923
0.675598 0.563965 0.003571
0.696991 0.571869 0.004669
0.716766 0.580017 0.006073
0.739655 0.587402 0.007141
0.765778 0.594421 0.007721
0.788605 0.601868 0.008820
0.809265 0.609375 0.010529
0.829651 0.616272 0.011688
0.852173 0.621857 0.011597
0.867645 0.626770 0.011871
0.880280 0.633270 0.012665
0.894287 0.638550 0.013306
0.910461 0.642212 0.013397
0.926788 0.645599 0.012909
0.941010 0.650085 0.012848
0.954559 0.655090 0.012421
0.970947 0.657745 0.012512
0.985535 0.661530 0.012695
0.994385 0.666321 0.014923
0.995300 0.676849 0.019958
0.996246 0.686646 0.028046
0.997192 0.697479 0.032440
0.998138 0.707886 0.048645
0.999054 0.718658 0.075012
1.000000 0.729492 0.097870
0.570282 0.522186 0.000000
0.587006 0.532043 0.000000
0.603943 0.541840 0.000000
0.620636 0.551666 0.000000
0.638763 0.561157 0.000000
0.661987 0.569305 0.000000
0.683990 0.577698 0.000000
0.703796 0.586334 0.000000
0.723053 0.594574 0.001099
0.742126 0.602783 0.002380
0.764801 0.610596 0.003326
0.793701 0.617218 0.003448
0.816833 0.624146 0.004242
0.834412 0.631714 0.005768
0.853760 0.638580 0.006836
0.868896 0.643372 0.007202
0.883240 0.647888 0.007690
0.897034 0.652618 0.008484
0.911255 0.656891 0.009094
0.926544 0.660675 0.009613
0.942657 0.664337 0.009216
0.958618 0.667847 0.008453
0.972076 0.672882 0.007935
0.984955 0.678070 0.007324
0.993439 0.682617 0.008636
0.994385 0.691406 0.018921
0.995300 0.701447 0.023987
0.996246 0.711975 0.028107
0.997192 0.722412 0.032623
0.998138 0.732971 0.042145
0.999054 0.743683 0.073578
1.000000 0.754395 0.104645
0.595154 0.543793 0.000000
0.612000 0.553619 0.000000
0.628662 0.563446 0.000000
0.645691 0.573212 0.000000
0.662476 0.582428 0.000000
0.681976 0.590973 0.000000
0.705200 0.598938 0.000000
0.727997 0.606995 0.000000
0.748627 0.615356 0.000000
0.771240 0.623688 0.000000
0.791962 0.632172 0.000000
0.815430 0.639343 0.000000
0.839355 0.644897 0.000000
0.859406 0.651184 0.000275
0.871094 0.657074 0.001465
0.884430 0.662201 0.001953
0.899048 0.666443 0.002625
0.913177 0.670868 0.003418
0.926605 0.675812 0.004059
0.941284 0.679962 0.004578
0.956909 0.683533 0.004761
0.972412 0.687012 0.004150
0.982086 0.693878 0.004944
0.991058 0.699463 0.004578
0.993439 0.708099 0.006195
0.994385 0.716583 0.017151
0.995300 0.726715 0.022491
0.996246 0.737152 0.026550
0.997192 0.747284 0.032806
0.998138 0.757904 0.044708
0.999054 0.768555 0.080872
1.000000 0.779175 0.117920
0.619751 0.565430 0.000000
0.636597 0.574951 0.000000
0.653503 0.584198 0.000000
0.670319 0.593384 0.000000
0.687256 0.602539 0.000000
0.705078 0.611755 0.000000
0.724762 0.620544 0.000000
0.749084 0.628052 0.000000
0.772919 0.635498 0.000000
0.796295 0.643066 0.000000
0.817017 0.650665 0.000000
0.834595 0.658600 0.000000
0.855286 0.665405 0.000000
0.871796 0.670074 0.000000
0.885254 0.675262 0.000000
