assets/luts/AmberLight.cube
#Created by: Adobe Photoshop Export Color Lookup Plugin
#Copyright: (C) Copyright 2018 https://www.presetpro.com and Tim Martin
TITLE "Presetpro - Amber Light"
#LUT size
LUT_3D_SIZE 5
#data domain
#LUT data points
DOMAIN_MIN 0.000000 0.000000 0.000000
DOMAIN_MAX 0.903226 0.903226 0.903226
0.015900 0.008362 0.008301
0.131165 0.020142 0.015198
0.424133 0.012482 0.008179
0.592773 0.014404 0.013672
0.723358 0.017548 0.017548
0.079865 0.096344 0.014160
0.235443 0.136749 0.023102
0.470551 0.173798 0.029266
0.689880 0.186096 0.038269
0.816864 0.203644 0.039551
0.236786 0.249603 0.009491
0.399475 0.313171 0.025360
0.603302 0.365997 0.033325
0.790771 0.407806 0.032837
0.914062 0.432526 0.032043
0.449951 0.428955 0.001068
0.590393 0.494446 0.012451
0.761597 0.545044 0.020691
0.897247 0.580383 0.023926
0.997192 0.613739 0.026184
0.642517 0.586212 0.000000
0.766724 0.648468 0.000000
0.897217 0.694183 0.000000
0.984131 0.733429 0.000000
0.997192 0.797516 0.031067
0.031860 0.011627 0.022156
0.174408 0.024323 0.038330
0.407227 0.025238 0.028351
0.611969 0.020660 0.029816
0.745331 0.022400 0.037445
0.120728 0.103821 0.029724
0.273499 0.155548 0.048798
0.501617 0.195160 0.065155
0.710876 0.215546 0.081573
0.839386 0.232025 0.096283
0.284393 0.267090 0.030609
0.443573 0.338928 0.055084
0.634583 0.391632 0.072266
0.812439 0.434723 0.086609
0.935669 0.457550 0.083710
0.498108 0.450623 0.011688
0.627472 0.515472 0.023773
0.787933 0.570282 0.031921
0.916046 0.603882 0.034363
0.997192 0.646271 0.086761
0.682465 0.608002 0.006561
0.816498 0.667328 0.006561
0.919037 0.712921 0.006561
0.990631 0.754547 0.014069
0.997192 0.826111 0.262543
0.121399 0.012695 0.052002
0.259277 0.025085 0.076172
0.451660 0.028168 0.083008
0.636871 0.023285 0.080750
0.767487 0.035583 0.108246
0.186615 0.111267 0.065430
0.338776 0.168884 0.103210
0.544830 0.211426 0.128510
0.737061 0.238892 0.158234
0.857544 0.268433 0.166931
0.342194 0.287445 0.058624
0.503754 0.360657 0.102570
0.673584 0.417084 0.137939
0.838745 0.457062 0.160095
0.954224 0.483978 0.157806
0.551239 0.471344 0.021759
0.673492 0.536316 0.033936
0.827759 0.590637 0.071198
0.936157 0.626587 0.085266
0.997192 0.678741 0.283173
0.737305 0.626953 0.013153
0.856384 0.685211 0.023865
0.936066 0.729797 0.033569
0.990631 0.781433 0.171875
0.997192 0.850952 0.442627
0.202271 0.013824 0.109009
0.361694 0.017975 0.138794
0.508209 0.025391 0.164581
0.669678 0.028412 0.186676
0.795868 0.042389 0.218842
0.270050 0.117584 0.127197
0.425690 0.175964 0.188751
0.594757 0.221344 0.237640
0.769409 0.243805 0.282227
0.880005 0.285400 0.289398
0.421356 0.302246 0.130554
0.563477 0.373993 0.193878
0.721924 0.434296 0.246460
0.861481 0.473602 0.289917
0.969788 0.504242 0.311584
0.607880 0.485291 0.066284
0.728790 0.552917 0.136475
0.857391 0.608948 0.205109
0.953705 0.645325 0.276367
0.997192 0.703735 0.455231
0.777679 0.644592 0.044678
0.878754 0.702393 0.132629
0.949463 0.750854 0.224274
0.990631 0.808258 0.378815
0.997192 0.875153 0.596771
0.299866 0.007812 0.163208
0.444855 0.010406 0.197754
0.576874 0.018768 0.233368
0.707397 0.032501 0.269653
0.827332 0.043976 0.305511
0.389496 0.114258 0.207062
0.519287 0.169617 0.274170
0.674164 0.215454 0.323181
0.800873 0.250671 0.364014
0.908325 0.291656 0.382019
0.505951 0.312256 0.230438
0.629028 0.382263 0.295624
0.784729 0.440735 0.348206
0.886688 0.484589 0.387238
0.980499 0.525909 0.433899
0.664490 0.499329 0.213318
0.781219 0.567780 0.291290
0.884857 0.618134 0.346039
0.972351 0.659302 0.386414
0.995667 0.732880 0.576141
0.825043 0.662354 0.187744
0.897369 0.722626 0.283600
0.964233 0.769318 0.347443
0.986206 0.834137 0.523926
0.997192 0.894318 0.695374
