assets/luts/AmberLight.cube
#Created by: Adobe Photoshop Export Color Lookup Plugin
#Copyright: (C) Copyright 2018 https://www.presetpro.com and Tim Martin
TITLE "Presetpro - Amber Light"
#LUT size
LUT_3D_SIZE 8
#data domain
#LUT data points
DOMAIN_MIN 0.000000 0.000000 0.000000
DOMAIN_MAX 0.903226 0.903226 0.903226
0.015900 0.008362 0.008301
0.050323 0.015320 0.013428
0.189575 0.019806 0.015503
0.356628 0.015198 0.009979
0.475311 0.010773 0.009277
0.569214 0.013153 0.012787
0.651550 0.015137 0.015137
0.723358 0.017548 0.017548
0.044647 0.040863 0.017731
0.091614 0.053406 0.024994
0.212189 0.073792 0.022247
0.360168 0.091614 0.019073
0.486023 0.101440 0.024017
0.629578 0.086090 0.031036
0.712280 0.084106 0.042389
0.786041 0.084473 0.044952
0.101562 0.116638 0.013062
0.179871 0.140442 0.020874
0.286438 0.166595 0.025482
0.422638 0.191010 0.029816
0.542694 0.209106 0.028381
0.671295 0.217834 0.038422
0.760040 0.224854 0.041809
0.828583 0.244141 0.034729
0.185669 0.202698 0.014282
0.263031 0.235657 0.020325
0.377014 0.269745 0.027222
0.508667 0.298889 0.029022
0.613739 0.323975 0.039429
0.734863 0.344360 0.035187
0.817169 0.355377 0.033539
0.885651 0.370514 0.033875
0.293274 0.299042 0.007294
0.373199 0.339203 0.016174
0.487183 0.378693 0.020813
0.591919 0.407959 0.027130
0.697205 0.436859 0.029633
0.806488 0.459320 0.031921
0.872650 0.474854 0.032837
0.940887 0.488495 0.030426
0.417358 0.403412 0.003143
0.501129 0.443207 0.010620
0.588287 0.478027 0.016022
0.689178 0.505646 0.021332
0.785675 0.536041 0.024384
0.867737 0.552948 0.025879
0.927032 0.572876 0.025421
0.993469 0.584991 0.023499
0.541656 0.499847 0.000000
0.617249 0.538666 0.000000
0.696991 0.571869 0.004669
0.788605 0.601868 0.008820
0.867645 0.626770 0.011871
0.926788 0.645599 0.012909
0.985535 0.661530 0.012695
0.997192 0.697479 0.032440
0.642517 0.586212 0.000000
0.711334 0.622894 0.000000
0.791718 0.655762 0.000000
0.868988 0.684692 0.000000
0.922791 0.705200 0.000000
0.970856 0.728638 0.000000
0.993439 0.757294 0.007446
0.997192 0.797516 0.031067
0.021912 0.011261 0.017761
0.063507 0.018066 0.024475
0.192596 0.023407 0.029694
0.329712 0.023804 0.021362
0.467560 0.014343 0.019562
0.583679 0.017761 0.020264
0.662079 0.018280 0.022034
0.734894 0.020538 0.024933
0.053467 0.044495 0.024689
0.113281 0.062927 0.036255
0.227539 0.085358 0.037384
0.377960 0.103363 0.034088
0.508728 0.110046 0.038879
0.650879 0.096832 0.051147
0.727051 0.096436 0.064331
0.799377 0.100281 0.070648
0.122467 0.121429 0.021759
0.198395 0.149811 0.032288
0.305603 0.178925 0.040405
0.439728 0.204132 0.046295
0.563904 0.220276 0.053192
0.686890 0.234833 0.054718
0.772736 0.242279 0.066132
0.844482 0.254761 0.066864
0.211792 0.209106 0.021606
0.289948 0.247498 0.035950
0.400482 0.283264 0.044403
0.523651 0.313782 0.050842
0.633850 0.337463 0.054016
0.752411 0.356720 0.058533
0.829620 0.370331 0.062561
0.895538 0.388428 0.062195
0.317627 0.309662 0.015472
0.397430 0.352905 0.026031
0.501831 0.394012 0.034241
0.608246 0.422333 0.043793
0.713776 0.452209 0.038116
0.816193 0.474030 0.052277
0.883331 0.489105 0.052826
0.952240 0.501343 0.043274
0.447235 0.415039 0.009186
0.530396 0.454834 0.016357
0.605469 0.491150 0.022491
0.699860 0.521515 0.027740
0.801544 0.550049 0.030975
0.877747 0.566681 0.032501
0.937561 0.586029 0.032074
0.996216 0.602814 0.034576
0.573059 0.511536 0.003754
0.643951 0.549774 0.004730
0.706726 0.585938 0.011963
0.805084 0.615051 0.015472
0.877655 0.639923 0.018280
0.938110 0.656525 0.018677
0.992218 0.674957 0.018799
0.997192 0.714447 0.089478
0.663818 0.599060 0.003754
0.737305 0.634338 0.003754
0.812347 0.668030 0.003754
0.880585 0.695953 0.003754
0.935669 0.715637 0.003754
0.980652 0.740845 0.003754
0.993439 0.772614 0.022797
0.997192 0.813660 0.152466
0.037781 0.011658 0.024628
0.074707 0.021301 0.034760
0.235779 0.023712 0.045349
0.343964 0.028625 0.036987
0.470673 0.027008 0.031006
0.591858 0.023010 0.034210
0.672577 0.021362 0.039062
0.747894 0.023163 0.042084
0.071838 0.045593 0.038208
0.140533 0.070190 0.049042
0.259827 0.091583 0.057129
0.400543 0.113983 0.054718
0.524506 0.123199 0.058990
0.660339 0.115692 0.072510
0.734589 0.121185 0.092102
0.811554 0.118896 0.105011
0.151581 0.126923 0.031342
0.227997 0.159088 0.045959
0.331299 0.190613 0.057343
0.469818 0.213745 0.070038
0.581238 0.235474 0.080872
0.705872 0.250336 0.088776
0.785583 0.259216 0.109436
0.855835 0.275360 0.102081
0.241913 0.219177 0.037445
0.315826 0.259918 0.054779
0.425964 0.297180 0.069183
0.543365 0.326447 0.078949
0.654755 0.351654 0.089233
0.771088 0.370117 0.100800
0.843262 0.384094 0.107025
0.910492 0.400177 0.104095
0.345947 0.322205 0.029327
0.433807 0.365875 0.041107
0.527618 0.406189 0.055939
0.627075 0.437836 0.070190
0.734009 0.466187 0.078552
0.829865 0.485931 0.089294
0.894592 0.503693 0.087311
0.965210 0.513428 0.081360
0.472595 0.428314 0.015747
0.550537 0.467651 0.023712
0.623840 0.505096 0.030396
0.717987 0.535645 0.033722
0.819336 0.561646 0.044373
0.888153 0.580444 0.050690
0.949097 0.598694 0.046600
0.997192 0.621674 0.084717
0.594269 0.524475 0.007507
0.661652 0.561798 0.011566
0.735260 0.596466 0.017365
0.819733 0.628998 0.021301
0.886993 0.652130 0.024963
0.946777 0.669250 0.024872
0.993439 0.689484 0.032043
0.997192 0.732086 0.206512
0.690430 0.610626 0.007507
0.764801 0.645477 0.007507
0.839600 0.678650 0.007507
0.894592 0.705780 0.007507
0.947205 0.726807 0.007782
0.986938 0.751984 0.014893
0.993439 0.788300 0.072845
0.997192 0.830078 0.291260
0.072266 0.013153 0.036804
0.148712 0.021545 0.055389
0.260681 0.026337 0.066315
0.383270 0.026672 0.064941
0.500244 0.025604 0.061920
0.607880 0.024536 0.056427
0.686005 0.023865 0.059082
0.760712 0.032104 0.068878
0.111359 0.047424 0.051453
0.186707 0.072510 0.071503
0.288940 0.100342 0.083130
0.429504 0.119293 0.090790
0.547363 0.131317 0.096954
0.665039 0.138306 0.103363
0.740936 0.147888 0.117615
0.818939 0.146515 0.130219
0.187714 0.131317 0.049927
0.263245 0.166992 0.067139
0.366943 0.199921 0.082977
0.491364 0.227844 0.095703
0.608917 0.246490 0.113037
0.724731 0.263702 0.130554
0.800262 0.274628 0.143951
0.867371 0.293365 0.138153
0.273468 0.229858 0.050110
0.353760 0.271667 0.072083
0.463562 0.310059 0.090668
0.569275 0.338959 0.110535
0.674835 0.366394 0.127472
0.784882 0.386292 0.139587
0.854126 0.401337 0.147919
0.921509 0.417725 0.140167
0.380432 0.334808 0.042267
0.471710 0.378937 0.060577
0.559357 0.417480 0.084595
0.649658 0.452209 0.108154
0.756042 0.479584 0.117462
0.843018 0.498810 0.128143
0.908936 0.515015 0.129791
0.974609 0.528900 0.118866
0.505371 0.441254 0.021088
0.576202 0.480103 0.033905
0.657837 0.514008 0.037415
0.742432 0.548370 0.062012
0.833710 0.576630 0.072968
0.897491 0.595276 0.085571
0.958801 0.612671 0.081787
0.997192 0.640381 0.194275
0.624298 0.535004 0.011261
0.690613 0.572235 0.016968
0.767151 0.606537 0.022552
0.839691 0.641235 0.027893
0.897705 0.664429 0.030273
0.956238 0.681671 0.033478
0.993439 0.706512 0.097382
0.997192 0.748352 0.317749
0.723114 0.621094 0.011261
0.793701 0.656342 0.011261
0.863434 0.688934 0.013336
0.909882 0.712860 0.018677
0.953949 0.738464 0.022064
0.989685 0.763367 0.030945
0.993439 0.804749 0.246185
0.997192 0.843750 0.395752
0.140381 0.013458 0.073792
0.228455 0.019653 0.084961
0.302887 0.025299 0.094604
0.420990 0.023010 0.105164
0.519897 0.028992 0.113739
0.624390 0.024414 0.115662
0.702515 0.030518 0.125031
0.774506 0.039551 0.138062
0.157196 0.049866 0.071594
0.231384 0.076080 0.102173
0.340973 0.102814 0.122650
0.458069 0.123993 0.138947
0.575989 0.134369 0.156616
0.686890 0.142151 0.171173
0.762451 0.147186 0.187073
0.822693 0.171967 0.181763
0.225006 0.136322 0.082550
0.301758 0.172882 0.109589
0.408966 0.206207 0.131561
0.517120 0.235352 0.153625
0.630798 0.257599 0.167175
0.740265 0.273590 0.191223
0.812561 0.288208 0.203674
0.876282 0.308960 0.208374
0.312927 0.239075 0.075958
0.399811 0.281250 0.097229
0.506042 0.317047 0.129486
0.590790 0.352936 0.147614
0.703369 0.377106 0.172607
0.798553 0.399963 0.184479
0.865601 0.416504 0.201355
0.930237 0.433105 0.217407
0.420074 0.347321 0.060486
0.505920 0.391418 0.085052
0.593414 0.428070 0.117645
0.683350 0.462372 0.142059
0.785370 0.490997 0.154144
0.855377 0.512146 0.179565
0.920532 0.528473 0.179810
0.984344 0.541656 0.205292
0.541565 0.452148 0.030762
0.609894 0.489716 0.042877
0.684692 0.526428 0.069824
0.770966 0.559937 0.100433
0.854095 0.585663 0.113037
0.911774 0.606018 0.132751
0.972046 0.623016 0.142334
0.997192 0.657532 0.306610
0.651917 0.545410 0.017426
0.716370 0.581970 0.025574
0.782379 0.619781 0.033203
0.862946 0.648804 0.050995
0.913452 0.671326 0.077484
0.966949 0.692810 0.087128
0.993439 0.723999 0.266632
0.997192 0.762726 0.409302
0.749237 0.632019 0.018311
0.815369 0.665741 0.026581
0.875214 0.695984 0.035248
0.918152 0.722229 0.073761
0.957794 0.750458 0.106293
0.989685 0.779297 0.203796
0.993439 0.819519 0.355621
0.997192 0.858154 0.488922
0.189789 0.013763 0.102051
0.303070 0.014709 0.118073
0.368195 0.020447 0.129486
0.448029 0.024628 0.146759
0.553162 0.027557 0.158661
0.647949 0.023438 0.170868
0.720459 0.035736 0.187653
0.791718 0.041931 0.204620
0.214081 0.050232 0.103271
0.290985 0.075470 0.135162
0.394226 0.104828 0.166412
0.501953 0.120422 0.196381
0.617981 0.129333 0.223907
0.711578 0.136444 0.244934
0.777618 0.154053 0.256805
0.842773 0.170441 0.258698
0.268768 0.141510 0.122131
0.352173 0.177734 0.155853
0.455353 0.210419 0.186707
0.549744 0.239838 0.216217
0.658752 0.263092 0.237488
0.758514 0.280396 0.260254
0.827576 0.294342 0.277924
0.890717 0.315918 0.279907
0.359894 0.244690 0.125793
0.445709 0.289093 0.154877
0.529388 0.327301 0.190582
0.620941 0.359406 0.221863
0.725372 0.387054 0.248596
0.812439 0.408081 0.268585
0.879242 0.423584 0.285583
0.940857 0.443268 0.296356
0.471375 0.355743 0.097595
0.545319 0.398315 0.137787
0.618927 0.439636 0.174622
0.711212 0.472015 0.201294
0.803314 0.501312 0.231964
0.869202 0.521484 0.261383
0.929504 0.539825 0.279999
0.987122 0.556549 0.308136
0.576202 0.460693 0.050049
0.637268 0.500824 0.088806
0.715851 0.536530 0.127899
0.798492 0.570312 0.169128
0.867554 0.595062 0.205200
0.922333 0.616180 0.249908
0.980682 0.633392 0.276398
0.996674 0.671783 0.403748
0.670685 0.554596 0.032074
0.735687 0.592041 0.074066
0.809601 0.627533 0.130341
0.873352 0.658173 0.165131
0.920502 0.683167 0.218964
0.975677 0.703400 0.249573
0.993439 0.738251 0.370300
0.997192 0.777130 0.497925
0.773560 0.641479 0.033813
0.836517 0.677002 0.074402
0.884155 0.707764 0.127563
0.927612 0.733948 0.169403
0.964874 0.762787 0.228302
0.989685 0.794830 0.327393
0.993439 0.834015 0.447327
0.997192 0.872345 0.581024
0.243134 0.011902 0.132660
0.363983 0.007751 0.155914
0.414093 0.014008 0.169250
0.489655 0.021362 0.186340
0.585846 0.022278 0.204315
0.668579 0.025604 0.221649
0.737183 0.040863 0.240967
0.808746 0.044342 0.257965
0.279755 0.047974 0.141785
0.364288 0.066986 0.181763
0.455292 0.092621 0.219238
0.556030 0.109039 0.253357
0.653595 0.126404 0.275177
0.734161 0.131317 0.298340
0.799530 0.146057 0.317108
0.859070 0.171387 0.317444
0.331543 0.143005 0.162415
0.414795 0.179504 0.200439
0.497223 0.212646 0.241425
0.592041 0.239929 0.270752
0.692474 0.266510 0.294189
0.778015 0.279907 0.319733
0.844421 0.297241 0.333282
0.903870 0.323395 0.336853
0.406921 0.252136 0.174561
0.494720 0.293457 0.214417
0.570190 0.330688 0.248749
0.662415 0.361450 0.284424
0.759064 0.391052 0.308624
0.829651 0.410675 0.332550
0.891876 0.430359 0.350220
0.956177 0.447449 0.354950
0.510315 0.362061 0.167206
0.579224 0.404053 0.211487
0.655701 0.444336 0.251801
0.743622 0.478821 0.279907
0.821930 0.508759 0.306396
0.881958 0.529236 0.329742
0.944275 0.543671 0.352142
0.986908 0.571991 0.390259
0.605743 0.468597 0.137939
0.676025 0.505981 0.186737
0.738708 0.546326 0.239288
0.824921 0.576782 0.269409
0.877686 0.604584 0.302155
0.933624 0.624390 0.326813
0.985718 0.643341 0.363831
0.995453 0.687805 0.480164
0.702087 0.561981 0.116669
0.761688 0.602142 0.167755
0.830780 0.639557 0.211761
0.887726 0.666290 0.257477
0.934631 0.691376 0.297455
0.984558 0.713379 0.329926
0.991760 0.752594 0.459229
0.997192 0.792145 0.571930
0.798340 0.652100 0.105835
0.859772 0.686707 0.161774
0.898254 0.717285 0.211700
0.933502 0.747711 0.267975
0.973602 0.773346 0.308960
0.987396 0.809448 0.413788
0.993439 0.848572 0.534698
0.997192 0.883301 0.640869
0.299866 0.007812 0.163208
0.416107 0.004822 0.186279
0.453888 0.011658 0.203278
0.531708 0.019897 0.222473
0.619232 0.021240 0.245758
0.689667 0.029053 0.265137
0.757324 0.041534 0.287964
0.827332 0.043976 0.305511
0.370026 0.034393 0.197693
0.438721 0.049286 0.230438
0.508209 0.080841 0.263336
0.603546 0.098969 0.294922
0.691437 0.113739 0.317169
0.751373 0.136505 0.339111
0.818726 0.147034 0.359802
0.878174 0.170746 0.365295
0.401245 0.141724 0.211823
0.471741 0.177124 0.252869
0.552368 0.206512 0.287689
0.637146 0.237579 0.313202
0.730164 0.264221 0.337585
0.795135 0.285828 0.363068
0.861755 0.301178 0.378174
0.921326 0.325165 0.390045
0.466888 0.255066 0.224060
0.534698 0.295959 0.269196
0.612793 0.332184 0.300842
0.701935 0.364838 0.328796
0.787323 0.393463 0.355621
0.847137 0.416138 0.375763
0.909668 0.433380 0.398224
0.968842 0.456116 0.404633
0.550903 0.366028 0.230499
0.619019 0.407898 0.276428
0.690857 0.449310 0.310516
0.773682 0.485291 0.337311
0.840607 0.512726 0.362457
0.897491 0.534912 0.384003
0.955109 0.552734 0.406525
0.986359 0.587402 0.470398
0.643738 0.475098 0.213196
0.703644 0.515991 0.262787
0.778229 0.551849 0.304413
0.846344 0.582794 0.332642
0.895752 0.607788 0.361694
0.946167 0.631989 0.381927
0.984528 0.658752 0.446259
0.994293 0.704315 0.550262
0.733948 0.570801 0.196289
0.798065 0.609680 0.246307
0.857788 0.645111 0.287079
0.901855 0.673065 0.321198
0.951019 0.695923 0.356110
0.982117 0.727783 0.426514
0.989502 0.767426 0.538635
0.997192 0.804626 0.624481
0.825043 0.662354 0.187744
0.873444 0.697021 0.242828
0.906738 0.729431 0.293915
0.945160 0.756470 0.326141
0.977966 0.785065 0.374908
0.984558 0.824310 0.495941
0.990784 0.861755 0.606628
0.997192 0.894318 0.695374
