assets/luts/Filmmaker.cube
#Created by: Adobe Photoshop Export Color Lookup Plugin
#Copyright: (C) Copyright 2022 Tim Martin and Presetpro.com
TITLE "Presetpro - Filmmaker.jpg"
#LUT size
LUT_3D_SIZE 32
#data domain
DOMAIN_MIN 0.0 0.0 0.0
DOMAIN_MAX 1.0 1.0 1.0
#LUT data points
0.000000 0.000000 0.000000
0.015930 0.000000 0.003784
0.039734 0.000000 0.003662
0.059204 0.003540 0.000000
0.082855 0.004425 0.007324
0.096008 0.011780 0.000641
0.120667 0.008606 0.000763
0.149017 0.011780 0.003937
0.169769 0.014679 0.004944
0.191010 0.015686 0.003937
0.216675 0.010498 0.006592
0.245911 0.017090 0.003937
0.269440 0.010864 0.001526
0.305237 0.015686 0.001648
0.334320 0.009613 0.003937
0.374146 0.004059 0.003937
0.406250 0.002014 0.000000
0.450409 0.000000 0.000000
0.487579 0.001648 0.002289
0.527313 0.003937 0.000000
0.572296 0.000000 0.000000
0.608124 0.000000 0.000000
0.645294 0.002777 0.000000
0.685150 0.000000 0.005829
0.724121 0.003937 0.000000
0.760925 0.000000 0.000000
0.804688 0.000000 0.007202
0.841125 0.000000 0.000519
0.877289 0.000000 0.000000
0.908783 0.003937 0.003662
0.944458 0.000122 0.000000
0.980377 0.003937 0.003937
0.003784 0.012268 0.000000
0.015808 0.019989 0.000122
0.039978 0.019745 0.004059
0.063507 0.019867 0.003662
0.087036 0.020355 0.000000
0.100830 0.023773 0.000000
0.125366 0.027466 0.000000
0.150146 0.029846 0.000122
0.177490 0.024780 0.000000
0.191528 0.029602 0.000122
0.224518 0.027954 0.003937
0.247559 0.031494 0.001251
0.273224 0.027710 0.001404
0.308655 0.026062 0.000000
0.344421 0.019989 0.002411
0.378082 0.021881 0.004059
0.414185 0.013794 0.002014
0.446228 0.005829 0.000122
0.492279 0.001770 0.000000
0.529968 0.001526 0.000000
0.572296 0.000000 0.000000
0.611908 0.000000 0.000122
0.649231 0.001129 0.001129
0.686157 0.003937 0.001007
0.725128 0.002899 0.002899
0.764954 0.003052 0.000000
0.804810 0.003174 0.000244
0.841248 0.000000 0.000000
0.876923 0.000519 0.000000
0.916260 0.003784 0.000000
0.944580 0.000000 0.003662
0.983948 0.000244 0.003784
0.000244 0.040222 0.008362
0.011780 0.039978 0.007965
0.032379 0.043884 0.008087
0.060089 0.043884 0.007965
0.080200 0.040222 0.000244
0.111328 0.039978 0.000244
0.127777 0.040466 0.000000
0.155975 0.043640 0.000000
0.176849 0.047302 0.000000
0.201904 0.050995 0.005585
0.227570 0.041992 0.000000
0.257050 0.044159 0.003937
0.280823 0.047302 0.003662
0.313843 0.041870 0.000000
0.349976 0.036316 0.001526
0.378357 0.041351 0.001648
0.420044 0.028198 0.000000
0.462006 0.022125 0.001770
0.497711 0.008453 0.000244
0.539459 0.000763 0.002167
0.582184 0.000244 0.003937
0.619873 0.000000 0.000000
0.652252 0.000000 0.001404
0.686676 0.003937 0.001251
0.728912 0.000885 0.003052
0.765350 0.003174 0.000244
0.807983 0.000000 0.000000
0.847687 0.000244 0.003174
0.884125 0.003296 0.003296
0.909546 0.003662 0.003418
0.948273 0.005188 0.000519
0.980652 0.017944 0.000763
0.000000 0.068176 0.019989
0.004059 0.068176 0.015808
0.032379 0.064270 0.012634
0.059204 0.060730 0.012512
0.090332 0.067810 0.003937
0.111694 0.063995 0.000366
0.131683 0.064270 0.000763
0.156342 0.069946 0.003540
0.180145 0.064270 0.000000
0.213287 0.066681 0.003540
0.232880 0.066925 0.001251
0.261200 0.066284 0.003540
0.289917 0.065521 0.000366
0.322571 0.062866 0.000000
0.356812 0.067047 0.000000
0.389832 0.062378 0.000366
0.428497 0.056030 0.000366
0.464294 0.050720 0.000000
0.500458 0.040863 0.000000
0.537811 0.033264 0.001526
0.583069 0.023254 0.000366
0.622528 0.012634 0.000763
0.659485 0.002258 0.002411
0.691833 0.002258 0.001007
0.738007 0.002258 0.004425
0.776978 0.001892 0.000366
0.809235 0.002655 0.000000
0.845306 0.006836 0.003784
0.885132 0.014404 0.000366
0.917023 0.034271 0.003296
0.948639 0.053375 0.000244
0.984314 0.076416 0.000000
0.000000 0.100067 0.026062
0.000244 0.099426 0.024536
0.019867 0.091949 0.027466
0.047821 0.092102 0.028473
0.076019 0.088806 0.004944
0.111572 0.092346 0.007843
0.135345 0.091461 0.003174
0.160400 0.095642 0.003540
0.193665 0.087799 0.002899
0.213531 0.092834 0.000000
0.243500 0.091949 0.001007
0.273987 0.093353 0.000000
0.301697 0.090698 0.002411
0.334839 0.089935 0.000000
0.369080 0.088287 0.001770
0.395294 0.085388 0.000000
0.433685 0.085754 0.005432
0.472412 0.080444 0.001770
0.512115 0.077026 0.005554
0.554718 0.073120 0.001526
0.584717 0.069183 0.005432
0.631653 0.063995 0.003418
0.667694 0.061340 0.000519
0.707153 0.053497 0.005310
0.742065 0.051605 0.000885
0.778381 0.057159 0.003174
0.814178 0.063507 0.000000
0.853394 0.069702 0.003937
0.885254 0.077667 0.003418
0.917633 0.089050 0.000519
0.952820 0.104858 0.000122
0.981903 0.120178 0.000000
0.000000 0.122833 0.040466
0.000519 0.123962 0.033142
0.004669 0.119781 0.032623
0.030487 0.120544 0.036926
0.080597 0.120544 0.035309
0.099945 0.120178 0.024780
0.135620 0.119537 0.018585
0.162811 0.120178 0.006958
0.185699 0.116241 0.000641
0.220245 0.113464 0.003296
0.252106 0.116241 0.002655
0.284485 0.115631 0.001251
0.313446 0.117126 0.000000
0.337250 0.121185 0.000000
0.367584 0.118408 0.000000
0.411469 0.118286 0.000641
0.450623 0.112946 0.000000
0.484375 0.110565 0.001526
0.522461 0.109680 0.001648
0.560181 0.111694 0.000000
0.600372 0.109039 0.007202
0.634796 0.105743 0.001251
0.674530 0.105743 0.000000
0.712585 0.104095 0.000000
0.750031 0.105499 0.005432
0.782684 0.111450 0.000000
0.819733 0.116882 0.000000
0.849976 0.124207 0.000000
0.889557 0.125610 0.001251
0.925354 0.139282 0.004303
0.953064 0.150543 0.003174
0.982300 0.160034 0.000641
0.003174 0.155975 0.062744
0.000000 0.152039 0.051727
0.003937 0.148132 0.045410
0.018860 0.148499 0.050995
0.055420 0.144958 0.042633
0.088806 0.151306 0.039337
0.117523 0.151306 0.028198
0.154968 0.147491 0.025055
0.197083 0.148895 0.008606
0.213135 0.148132 0.003174
0.261230 0.147369 0.002655
0.278290 0.146729 0.000000
0.325195 0.140289 0.002411
0.346985 0.145844 0.000763
0.386780 0.144470 0.001770
0.424622 0.148895 0.000000
0.456848 0.150787 0.000763
0.496063 0.149902 0.000000
0.538544 0.148895 0.001526
0.575226 0.150391 0.003021
0.610260 0.147491 0.005707
0.650116 0.148895 0.002655
0.685272 0.149658 0.000000
0.721436 0.148895 0.000000
0.759277 0.149658 0.000763
0.793060 0.159149 0.002411
0.824921 0.162415 0.000000
0.857056 0.168732 0.003021
0.891479 0.176727 0.000000
0.922089 0.180756 0.002899
0.960266 0.187714 0.000000
0.988983 0.203033 0.000000
0.006958 0.186951 0.072357
0.003052 0.184052 0.066803
0.000000 0.186951 0.060577
0.003052 0.183929 0.058838
0.029999 0.177094 0.058807
0.075653 0.183289 0.055420
0.115753 0.183044 0.047943
0.146851 0.179993 0.034912
0.188110 0.180145 0.028076
0.215942 0.179993 0.007843
0.253876 0.180511 0.006195
0.283875 0.177856 0.001770
0.315216 0.182404 0.000000
0.357330 0.177734 0.001526
0.403107 0.176971 0.002167
0.432709 0.177979 0.000885
0.474030 0.178986 0.004181
0.512726 0.182648 0.000000
0.551178 0.181641 0.002533
0.589386 0.182404 0.000885
0.617584 0.190125 0.003937
0.660858 0.191772 0.003052
0.695007 0.190643 0.003815
0.730927 0.192657 0.002899
0.755981 0.200500 0.000885
0.797974 0.202789 0.004547
0.833008 0.204407 0.004822
0.872864 0.208710 0.000000
0.896912 0.216187 0.000000
0.934845 0.218201 0.000885
0.967987 0.227814 0.002899
0.996948 0.232758 0.006958
0.001007 0.219727 0.079437
0.002899 0.220734 0.080322
0.000244 0.217560 0.077423
0.000641 0.213531 0.068298
0.001007 0.218719 0.078949
0.049347 0.213135 0.074768
0.094879 0.216064 0.066040
0.135986 0.213776 0.062866
0.175568 0.210999 0.050995
0.215424 0.211761 0.032898
0.248199 0.217072 0.017853
0.280823 0.215179 0.008850
0.322693 0.215820 0.002411
0.357208 0.217438 0.001007
0.403748 0.212891 0.002899
0.441956 0.213654 0.000000
0.491486 0.214935 0.002899
0.526520 0.219604 0.000000
0.562714 0.220734 0.001007
0.602661 0.220734 0.000000
0.634277 0.226166 0.000000
0.669220 0.227570 0.001007
0.705505 0.236053 0.002014
0.741058 0.239349 0.000000
0.771149 0.241241 0.000000
0.807831 0.241364 0.001526
0.842499 0.250854 0.000000
0.878693 0.249207 0.002411
0.902832 0.258575 0.002014
0.936005 0.258301 0.001007
0.967224 0.263733 0.002777
0.995056 0.272736 0.008728
0.001129 0.255524 0.092987
0.000000 0.259460 0.090210
0.000000 0.251099 0.084625
0.003937 0.249969 0.084259
0.000000 0.256042 0.092346
0.012909 0.249969 0.081207
0.065918 0.249969 0.079041
0.116119 0.249695 0.072357
0.165833 0.255524 0.070221
0.194427 0.252747 0.049316
0.234894 0.248932 0.041748
0.278931 0.254150 0.019348
0.319031 0.255524 0.006317
0.357239 0.258301 0.000000
0.408295 0.256653 0.003937
0.445618 0.256287 0.000000
0.488739 0.254761 0.001129
0.534485 0.261597 0.001129
0.573822 0.262878 0.001129
0.610626 0.260590 0.003784
0.647705 0.263123 0.004181
0.683380 0.263245 0.002655
0.714233 0.272339 0.002777
0.752960 0.276398 0.000000
0.783813 0.284119 0.001892
0.816589 0.284119 0.000000
0.847809 0.291962 0.005432
0.879181 0.290802 0.003937
0.908661 0.300568 0.002258
0.941559 0.300934 0.008118
0.973175 0.306244 0.001129
0.997223 0.308777 0.001129
0.001251 0.293854 0.105743
0.003937 0.299164 0.103210
0.000000 0.300446 0.103210
0.000000 0.296509 0.099304
0.000000 0.295258 0.101837
0.000000 0.293854 0.096649
0.014435 0.293091 0.098663
0.082367 0.287262 0.092712
0.135620 0.292603 0.081451
0.187744 0.289795 0.076172
0.227325 0.291199 0.058838
0.271088 0.288544 0.045532
0.313721 0.292725 0.007965
0.352417 0.299042 0.002655
0.403625 0.295624 0.000519
0.446136 0.297150 0.003937
0.486694 0.300446 0.002533
0.533630 0.301331 0.005188
0.580017 0.305359 0.006439
0.620911 0.305603 0.002655
0.657074 0.309540 0.001251
0.692993 0.309540 0.001251
0.725128 0.312592 0.001526
0.763580 0.315094 0.000000
0.792542 0.323975 0.000000
0.825043 0.327118 0.002533
0.856293 0.330536 0.002014
0.888947 0.337891 0.006958
0.920929 0.333435 0.001251
0.950531 0.338379 0.001251
0.978363 0.342438 0.000000
0.993408 0.347504 0.003937
0.003937 0.344177 0.115112
0.000000 0.343048 0.111206
0.000000 0.343048 0.111206
0.001404 0.339142 0.108673
0.003052 0.338257 0.116760
0.000641 0.340881 0.110443
0.001404 0.342651 0.110443
0.019470 0.332184 0.106506
0.108307 0.336700 0.102722
0.158112 0.333832 0.087036
0.209991 0.335358 0.073486
0.255157 0.333832 0.063904
0.305756 0.330017 0.040222
0.345703 0.334595 0.007324
0.394653 0.341675 0.001404
0.442719 0.340790 0.007202
0.488098 0.342957 0.002777
0.528442 0.346344 0.001404
0.573608 0.348114 0.001404
0.614594 0.349152 0.000000
0.657196 0.350891 0.003937
0.702118 0.353424 0.002533
0.738037 0.354828 0.005310
0.773834 0.357361 0.000000
0.807983 0.362915 0.000000
0.837952 0.363037 0.002258
0.866028 0.369629 0.002655
0.896027 0.377106 0.007446
0.921814 0.380463 0.001404
0.954712 0.379486 0.000000
0.981262 0.381897 0.001404
1.000000 0.385956 0.000000
0.005432 0.389465 0.129425
0.003784 0.390839 0.124481
0.000000 0.389465 0.120667
0.001129 0.388184 0.121826
0.000519 0.389465 0.117645
0.003937 0.387054 0.117645
0.000000 0.384003 0.119171
0.003296 0.383118 0.119171
0.035797 0.384003 0.115356
0.126129 0.385162 0.105743
0.190399 0.383362 0.092224
0.242889 0.381470 0.077545
0.291443 0.383118 0.060333
0.335327 0.380096 0.030243
0.380341 0.378204 0.004822
0.435760 0.390961 0.000000
0.479736 0.386963 0.003418
0.526947 0.390991 0.003021
0.569946 0.389496 0.003937
0.612061 0.390381 0.000000
0.653290 0.393402 0.001404
0.699463 0.398804 0.001526
0.740448 0.399689 0.002411
0.779663 0.398346 0.000000
0.816711 0.402771 0.003937
0.846313 0.404388 0.000000
0.870850 0.403015 0.005432
0.902985 0.411499 0.000000
0.929779 0.416168 0.000366
0.961304 0.419098 0.000000
0.989380 0.419342 0.000000
1.000000 0.424164 0.006073
0.002289 0.440552 0.136627
0.004547 0.441193 0.134979
0.000000 0.441193 0.132690
0.003540 0.436890 0.132324
0.000000 0.439545 0.127777
0.000000 0.437897 0.131042
0.003174 0.436523 0.131927
0.002289 0.432709 0.123718
0.000000 0.426758 0.126740
0.065765 0.431702 0.126648
0.157745 0.433350 0.110565
0.223663 0.426880 0.089325
0.277161 0.427795 0.072479
0.330383 0.427795 0.047699
0.367706 0.422211 0.014313
0.421326 0.424377 0.000000
0.471527 0.430054 0.000763
0.518829 0.433868 0.001770
0.564362 0.433350 0.000641
0.606628 0.435638 0.002411
0.647736 0.437256 0.000000
0.691101 0.436920 0.000000
0.729950 0.441193 0.000000
0.773712 0.445099 0.001282
0.809631 0.444855 0.001648
0.849487 0.445038 0.000000
0.884369 0.449677 0.002899
0.911560 0.443878 0.001648
0.938507 0.452881 0.000000
0.966980 0.451599 0.000000
0.993561 0.456909 0.002167
1.000000 0.459198 0.003296
0.000000 0.489014 0.148621
0.006073 0.487244 0.139008
0.000000 0.486847 0.136871
0.001770 0.485077 0.136871
0.000519 0.488495 0.137268
0.005676 0.483307 0.136871
0.003174 0.484314 0.139648
0.000000 0.480286 0.132050
0.002899 0.479401 0.138397
0.002258 0.480042 0.126862
0.108032 0.476379 0.127777
0.193665 0.475098 0.108032
0.256042 0.473328 0.096405
0.311798 0.471039 0.074371
0.363556 0.467621 0.042755
0.407532 0.471436 0.004059
0.461792 0.469421 0.000000
0.510986 0.475098 0.000000
0.557037 0.473328 0.002167
0.599182 0.475464 0.007843
0.646423 0.476227 0.000763
0.689575 0.481171 0.004822
0.725494 0.479034 0.003815
0.763580 0.486237 0.001129
0.804688 0.485077 0.003540
0.846832 0.488647 0.001770
0.885284 0.488770 0.000000
0.913971 0.487244 0.000000
0.943939 0.489380 0.000000
0.970154 0.490906 0.001892
0.994049 0.495087 0.000244
0.998230 0.495087 0.001770
0.001892 0.531006 0.160645
0.001892 0.533020 0.154846
0.002289 0.527344 0.151154
0.003540 0.528595 0.152435
0.003937 0.527100 0.146851
0.004547 0.528351 0.149384
0.004059 0.526581 0.153931
0.003784 0.528992 0.148010
0.000000 0.526947 0.145111
0.000763 0.524445 0.147003
0.033142 0.524414 0.141663
0.155457 0.521271 0.126495
0.233002 0.517212 0.110809
0.294373 0.518982 0.091705
0.347992 0.515442 0.069824
0.399567 0.513306 0.027588
0.455200 0.509369 0.003784
0.499359 0.507507 0.000275
0.549072 0.515717 0.004059
0.592957 0.513428 0.001526
0.633820 0.517334 0.000000
0.681519 0.521149 0.000000
0.721588 0.521149 0.000000
0.758759 0.521271 0.000000
0.801544 0.522400 0.003052
0.841370 0.522552 0.003784
0.874023 0.521942 0.001892
0.908142 0.528107 0.003052
0.945862 0.523163 0.001892
0.975464 0.521423 0.000244
0.993805 0.526978 0.002014
1.000000 0.528992 0.000000
0.001892 0.572968 0.170654
0.000000 0.572968 0.170410
0.000244 0.575134 0.163055
0.001648 0.576141 0.164093
0.003784 0.570587 0.166107
0.000641 0.570465 0.160919
0.000763 0.569061 0.159637
0.003937 0.570953 0.159027
0.000000 0.567017 0.154083
0.003174 0.566772 0.160156
0.003784 0.561218 0.154968
0.110809 0.559814 0.151917
0.203705 0.557159 0.138916
0.281525 0.557281 0.121246
0.332001 0.558929 0.098602
0.391449 0.551605 0.076843
0.445312 0.547424 0.031494
0.487457 0.553253 0.005554
0.531982 0.549072 0.000000
0.584595 0.551605 0.006073
0.628723 0.552734 0.000000
0.671356 0.555267 0.000641
0.712585 0.556396 0.004913
0.753693 0.560028 0.001892
0.800385 0.557159 0.002014
0.836334 0.557159 0.005951
0.871368 0.558563 0.002014
0.904755 0.561096 0.000000
0.942322 0.557159 0.000366
0.971405 0.560791 0.002014
0.993805 0.561096 0.001770
1.000000 0.561066 0.000000
0.003937 0.612579 0.194702
0.000000 0.608643 0.182922
0.000244 0.609161 0.182922
0.001770 0.612549 0.180786
0.003418 0.612457 0.180664
0.001770 0.610138 0.178375
0.001770 0.608276 0.181549
0.004303 0.605103 0.181152
0.001007 0.603577 0.171417
0.000000 0.603699 0.170410
0.004791 0.602203 0.176483
0.044434 0.598267 0.167480
0.174591 0.599640 0.159393
0.262665 0.595123 0.147797
0.322144 0.596863 0.128448
0.379700 0.587677 0.111115
0.427368 0.587524 0.082336
0.479248 0.591156 0.043152
0.529053 0.586761 0.004303
0.573059 0.585114 0.000000
0.627594 0.586853 0.000000
0.667450 0.592926 0.002655
0.707550 0.592926 0.000000
0.750671 0.592957 0.000000
0.790375 0.592926 0.002655
0.830505 0.593323 0.000000
0.861359 0.596222 0.000000
0.897797 0.597595 0.002167
0.933960 0.592926 0.001404
0.967743 0.593170 0.002167
0.997345 0.594696 0.002167
1.000000 0.586884 0.000000
0.000000 0.649963 0.208496
0.003937 0.646179 0.206726
0.002289 0.646698 0.202911
0.005951 0.644684 0.202911
0.000519 0.648468 0.193420
0.000000 0.644409 0.197327
0.002289 0.646698 0.202911
0.002289 0.643311 0.198639
0.002655 0.641754 0.191162
0.001648 0.641144 0.194427
0.002289 0.637238 0.197357
0.010742 0.637695 0.188873
0.149292 0.634918 0.184082
0.247711 0.633301 0.173859
0.309875 0.632019 0.163116
0.372620 0.627258 0.147186
0.419403 0.627075 0.121063
0.469879 0.626434 0.094482
0.519592 0.622528 0.052246
0.566864 0.622406 0.009857
0.604431 0.620636 0.000000
0.656158 0.621277 0.000000
0.701843 0.624817 0.001129
0.744965 0.627075 0.000000
0.782288 0.630127 0.000000
0.820496 0.624817 0.001648
0.861877 0.624176 0.005554
0.894379 0.626434 0.000000
0.926880 0.626434 0.004913
0.965088 0.625061 0.003662
0.999115 0.624939 0.002289
1.000000 0.624817 0.002289
0.001526 0.677795 0.233154
0.002289 0.681610 0.232147
0.000244 0.679565 0.224670
0.002411 0.681732 0.226837
0.000000 0.681213 0.224426
0.001770 0.681732 0.224945
0.000763 0.678711 0.220367
0.001526 0.680847 0.225952
0.001404 0.672241 0.215576
0.001282 0.675171 0.216949
0.002655 0.673523 0.221649
0.003021 0.669464 0.214813
0.127045 0.669067 0.215057
0.228912 0.666809 0.202576
0.304932 0.662750 0.196594
0.359863 0.664032 0.177795
0.418762 0.660461 0.164459
0.461517 0.661865 0.135223
0.517822 0.656677 0.110199
0.562561 0.656677 0.081116
0.598358 0.656677 0.022156
0.642517 0.647949 0.000000
0.692749 0.647949 0.004822
0.740540 0.658600 0.000000
0.775970 0.658203 0.001526
0.819733 0.657440 0.002258
0.849976 0.656677 0.000641
0.889191 0.659210 0.000519
0.925110 0.659088 0.001526
0.962555 0.655548 0.000244
0.991638 0.658203 0.002411
1.000000 0.652771 0.001526
0.005066 0.713715 0.266418
0.004822 0.709686 0.255798
0.002777 0.710693 0.253906
0.004181 0.712097 0.250732
0.002777 0.708160 0.251892
0.000000 0.710205 0.247437
0.000000 0.711334 0.249969
0.002777 0.709045 0.246552
0.005432 0.704254 0.245422
0.001404 0.705658 0.241516
0.000000 0.705658 0.244171
0.002533 0.702850 0.244049
0.111633 0.699951 0.241638
0.227722 0.697296 0.243042
0.298248 0.693878 0.229401
0.356934 0.696411 0.215973
0.409424 0.693878 0.200409
0.455322 0.691711 0.181274
0.506927 0.691101 0.155090
0.557129 0.689575 0.130920
0.596985 0.685791 0.101715
0.638092 0.687164 0.043152
0.681732 0.678192 0.005066
0.725739 0.679199 0.000000
0.765961 0.688049 0.000000
0.805573 0.686035 0.000000
0.845917 0.686798 0.000000
0.886292 0.690216 0.002258
0.920044 0.683502 0.002899
0.957245 0.688812 0.003662
0.981506 0.686035 0.004059
1.000000 0.687408 0.005310
0.000000 0.738647 0.298187
0.003784 0.738770 0.292725
0.001251 0.738800 0.283875
0.001251 0.741302 0.279816
0.000000 0.742584 0.281464
0.000641 0.740051 0.277313
0.002655 0.740051 0.278564
0.003937 0.739166 0.277802
0.004944 0.736755 0.279572
0.002258 0.733734 0.272369
0.001404 0.732056 0.269470
0.002533 0.731049 0.273132
0.111877 0.732208 0.269958
0.226898 0.728271 0.276917
0.296844 0.725616 0.265961
0.356445 0.724487 0.259979
0.408264 0.722961 0.244171
0.458740 0.724365 0.232025
0.507446 0.720062 0.205688
0.547394 0.719055 0.189514
0.589142 0.719055 0.163849
0.631653 0.713867 0.122955
0.679199 0.713745 0.072540
0.714874 0.707275 0.024292
0.754089 0.706787 0.003052
0.801910 0.713867 0.003937
0.841888 0.713867 0.003143
0.877686 0.716522 0.000000
0.911713 0.716522 0.000000
0.950928 0.713867 0.000000
0.986328 0.717651 0.000000
1.000000 0.717773 0.000000
0.000000 0.768005 0.327148
0.002777 0.766876 0.318146
0.002777 0.768005 0.317017
0.002777 0.769135 0.315369
0.002777 0.766876 0.318146
0.006073 0.766998 0.315887
0.002014 0.767242 0.311707
0.000885 0.763184 0.314240
0.002777 0.767120 0.310944
0.001648 0.762421 0.309174
0.002777 0.761292 0.310822
0.000000 0.760162 0.299103
0.134277 0.757385 0.308563
0.235504 0.754608 0.307037
0.303680 0.755096 0.303497
0.363129 0.753204 0.299194
0.417267 0.749542 0.285645
0.462158 0.749542 0.273499
0.509460 0.752319 0.250214
0.547760 0.746735 0.242279
0.586853 0.744476 0.220642
0.631256 0.744476 0.191528
0.669952 0.743347 0.154602
0.706268 0.737640 0.126007
0.745117 0.734619 0.059509
0.789520 0.735352 0.008362
0.834930 0.740540 0.000000
0.877533 0.744476 0.005585
0.905518 0.741699 0.005951
0.938782 0.742584 0.000000
0.976105 0.742584 0.001007
0.997223 0.741699 0.002258
0.000000 0.794952 0.365479
0.001007 0.793060 0.360291
0.000000 0.792786 0.348907
0.003540 0.791656 0.343597
0.001007 0.788635 0.340546
0.001648 0.789764 0.342957
0.000000 0.790131 0.346893
0.000885 0.789001 0.346741
0.004028 0.791016 0.345856
0.003784 0.785706 0.344086
0.000000 0.786469 0.344971
0.031464 0.783691 0.342682
0.161987 0.784180 0.343842
0.252563 0.783173 0.337128
0.321136 0.776459 0.336517
0.374908 0.778381 0.344849
0.423950 0.776337 0.335114
0.464691 0.775208 0.319794
0.510986 0.773438 0.302734
0.549835 0.769623 0.287170
0.587616 0.769897 0.271484
0.628723 0.772186 0.249207
0.667694 0.765717 0.215942
0.706787 0.766602 0.200775
0.737518 0.764587 0.156250
0.780792 0.762177 0.111206
0.820740 0.758118 0.035339
0.862732 0.769012 0.001007
0.904358 0.770538 0.002899
0.938263 0.763702 0.000244
0.976715 0.768646 0.000122
0.997101 0.773438 0.000000
0.000885 0.815186 0.389496
0.000885 0.816071 0.390381
0.000000 0.816956 0.389496
0.000885 0.816956 0.384705
0.003418 0.813416 0.384186
0.003937 0.812164 0.383820
0.000000 0.816071 0.384583
0.000885 0.814789 0.384705
0.000885 0.809998 0.378998
0.007202 0.810242 0.381042
0.003448 0.810883 0.381805
0.097260 0.809998 0.376221
0.203491 0.812408 0.369019
0.282684 0.805817 0.373810
0.337341 0.805206 0.377747
0.394897 0.800262 0.374084
0.441681 0.802155 0.373077
0.478729 0.799103 0.363312
0.519348 0.800385 0.354706
0.554749 0.800140 0.328644
0.595215 0.797363 0.322449
0.630249 0.796478 0.296021
0.669067 0.796204 0.275391
0.702728 0.789764 0.252625
0.738525 0.784302 0.227844
0.776489 0.789368 0.194061
0.811249 0.787750 0.152191
0.844147 0.785950 0.102386
0.894379 0.790527 0.009644
0.936005 0.796722 0.000000
0.971161 0.793427 0.000000
1.000000 0.800385 0.006073
0.006317 0.836945 0.434662
0.006195 0.837585 0.431366
0.002899 0.834778 0.428345
0.000366 0.837311 0.420868
0.003174 0.837708 0.418976
0.003174 0.836945 0.418976
0.002411 0.836945 0.420502
0.000000 0.836945 0.420502
0.001007 0.834045 0.419098
0.004700 0.836182 0.420502
0.077271 0.834930 0.423920
0.187439 0.834534 0.419739
0.258667 0.831512 0.419861
0.315735 0.829102 0.414307
0.363434 0.830872 0.411255
0.414246 0.830383 0.410767
0.454590 0.829865 0.411896
0.494812 0.827332 0.411896
0.534637 0.824432 0.402649
0.566650 0.818848 0.388367
0.606201 0.821259 0.373199
0.637329 0.819092 0.351685
0.667175 0.818085 0.335358
0.705261 0.819733 0.324097
0.734741 0.813538 0.291351
0.776611 0.810242 0.263641
0.808105 0.809631 0.232788
0.845551 0.809998 0.204193
0.878052 0.809875 0.155243
0.925751 0.815430 0.062408
0.963562 0.824554 0.001282
1.000000 0.821259 0.010254
0.006592 0.857574 0.473999
0.007080 0.857422 0.472992
0.000641 0.860840 0.466797
0.000366 0.860107 0.465149
0.003784 0.858704 0.456818
0.005310 0.862122 0.453003
0.000000 0.859467 0.458832
0.001282 0.860229 0.458954
0.014435 0.856934 0.458313
0.108276 0.862000 0.460480
0.195435 0.854889 0.457550
0.252502 0.856934 0.460968
0.304871 0.857178 0.454773
0.359619 0.850342 0.450745
0.401123 0.852112 0.451752
0.444092 0.849731 0.452240
0.473541 0.851746 0.452362
0.516937 0.849091 0.452118
0.550720 0.848083 0.453125
0.585083 0.845154 0.436951
0.617340 0.845154 0.424408
0.649231 0.843140 0.410492
0.679840 0.841888 0.393433
0.709686 0.844147 0.373199
0.737274 0.842133 0.350800
0.775482 0.844543 0.327911
0.809235 0.840607 0.304626
0.840729 0.837952 0.277924
0.873505 0.833649 0.238220
0.913086 0.837189 0.197357
0.957123 0.838470 0.135529
0.992798 0.856934 0.019775
0.000549 0.880829 0.510681
0.003815 0.884125 0.507141
0.003693 0.884003 0.506531
0.000549 0.880829 0.503357
0.000549 0.881348 0.503357
0.000031 0.885895 0.504364
0.028229 0.881592 0.497284
0.113495 0.884766 0.502350
0.170135 0.885254 0.494629
0.232758 0.881989 0.497162
0.282227 0.882477 0.499451
0.317383 0.877411 0.496918
0.362427 0.878815 0.500946
0.395691 0.876923 0.492096
0.433777 0.879059 0.493866
